X: 174
T: Darker the Night
B: canberra pickers and fiddlers
B: old time tunes update
B: tunes
M:C|
L:1/8
R: Reel
Q: 1/4=100
K:G
V:1 
Bd|g2ga g2 ag|fdd2 d2dc|Bdef gedc|BGG2 G2Bd|
g2ga g2 ag|fdd2 d2dc|Bdef gedc|1BGG2 G2:|2BGG2 G4||
G,B,DF G2G2|A=FFE F2FE|D^FAc dedc|BGG2 G2 GB,|
G,B,(DF) G2G2|A=FFE F2FE|D^FAc dedc|BGG2 G2 [G,G]G||
[D2B2g2] [G,G][G,G][D2B2g2]ag|fdd2 d2dd|Bdef gedc|BG [G2B2] G2[G,G]G|
[D2B2g2] [G,G][G,G][D2B2g2]ag|fdd2 d2dd|Bdef gedc|BG [G2B2] G2||
W: Verse 1:
W: I’ve honky tonked most all my life
W: My day begins at the end of night
W: I stay up late it don’t bother me
W: The darker the night the darker the night
W: The better I see
W: 
W: Chorus:
W: The lights I love are the lights of town
W: I thank the Lord above when the sun goes down
W: I find a shady spot and that’s where I’ll be
W: The darker the night the darker the night
W: The better I see
W: (Last time ending)
W: You heard me right the darker the night
W: The better I see
W: 
W: Verse 2:
W: My hit parade has about three chords
W: But I guarantee that ya won’t get bored
W: It starts getting’ good about a quarter til 3
W: The darker the night the darker the night
W: The better I see
W: (Instrumental)
W: 
W: Verse 3:
W: I rest my case at the break of day
W: What some call work brother I call play
W: Cause I once was blind but now I’m free
W: The darker the night the darker the night
W: The better I see
% abcbook-tune_id 67a7d9ec61016c35e1f2d1aa
% abcbook-tune_composer_id 
% abcbook-link-0 https://www.youtube.com/watch?v=zGhOP1bPg40
% abcbook-link-title-0 The Gibson Brothers - Darker the Night
% abcbook-boost 0
% abcbook-difficulty 0
% abcbook-tags old time tunes
% abcbook-tablature 
% abcbook-transpose 
% abcbook-tuning GDAD
% abcbook-lastupdated 1739160925829
% abcbook-src-url 
% abcbook-soundfonts 
% abcbook-repeats 1


